symbolic/64x64/apps/gitify.svg

<svg xmlns="http://www.w3.org/2000/svg" width="64" height="64" version="1">
 <path style="opacity:0.2" d="m 32.699923,5.0006988 c -0.254705,-0.003 -0.50938,0.008 -0.762891,0.03281 C 17.662238,5.0688908 5.4893949,16.011356 4.1257053,30.34904 2.7226145,45.10098 13.219858,58.514163 27.876486,60.695952 42.210763,62.829756 55.838602,53.517053 59.196016,39.523115 L 49.342434,27.675976 c -1.398384,-1.702547 -1.973986,-1.67471 -4.047086,-1.67471 h -9.095425 c -9.466258,-0.133882 -9.466258,14.134258 0,14.000378 h 7.929687 c -2.783358,4.882025 -8.298648,7.724257 -14.191405,6.847059 -7.432282,-1.106371 -12.586889,-7.69284 -11.875391,-15.173456 0.711498,-7.480616 7.014682,-12.977899 14.522266,-12.663234 0.30434,0.01624 0.609416,0.0126 0.91328,-0.01092 h 8.301563 c 3.904712,0.05523 7.099694,-3.094984 7.099694,-7.000189 0,-3.905204 -3.194982,-7.0554122 -7.099694,-7.0001892 z"/>
 <path style="fill:#214487" d="m 32.699923,4.000699 c -0.254705,-0.003 -0.50938,0.008 -0.762891,0.03281 C 17.662238,4.068891 5.4893949,15.011356 4.1257053,29.34904 2.7226145,44.10098 13.219858,57.514163 27.876486,59.695952 42.210763,61.829756 55.838602,52.517053 59.196016,38.523115 L 49.342434,26.675976 c -1.398384,-1.702547 -1.973986,-1.67471 -4.047086,-1.67471 h -9.095425 c -9.466258,-0.133882 -9.466258,14.134258 0,14.000378 h 7.929687 c -2.783358,4.882025 -8.298648,7.724257 -14.191405,6.847059 -7.432282,-1.106371 -12.586889,-7.69284 -11.875391,-15.173456 0.711498,-7.480616 7.014682,-12.977899 14.522266,-12.663234 0.30434,0.01624 0.609416,0.0126 0.91328,-0.01092 h 8.301563 c 3.904712,0.05523 7.099694,-3.094984 7.099694,-7.000189 0,-3.9052038 -3.194982,-7.055412 -7.099694,-7.000189 z"/>
 <path style="opacity:0.1;fill:#ffffff" d="M 32.699219 4 C 32.444514 3.997 32.191011 4.0083931 31.9375 4.0332031 C 17.662706 4.0685851 5.4886896 15.011925 4.125 29.349609 C 4.023554 30.416201 3.9916713 31.474581 4.0117188 32.523438 C 4.0238878 31.802505 4.0556957 31.078267 4.125 30.349609 C 5.4886896 16.011925 17.662706 5.0685851 31.9375 5.0332031 C 32.191011 5.0083931 32.444514 4.997 32.699219 5 L 41.800781 5 C 45.536646 4.947165 48.61508 7.8305202 48.875 11.5 C 48.886685 11.33459 48.900391 11.168415 48.900391 11 C 48.900391 7.0947962 45.705493 3.944777 41.800781 4 L 32.699219 4 z M 36.199219 25.001953 C 31.24271 24.931853 28.887171 28.81002 29.121094 32.501953 C 29.333931 29.142796 31.68947 25.938171 36.199219 26.001953 L 45.294922 26.001953 C 47.368022 26.001953 47.943413 25.973234 49.341797 27.675781 L 58.994141 39.28125 C 59.062247 39.028851 59.133998 38.779 59.195312 38.523438 L 49.341797 26.675781 C 47.943413 24.973234 47.368022 25.001953 45.294922 25.001953 L 36.199219 25.001953 z M 18.021484 32.554688 C 17.777852 39.66508 22.798808 45.786942 29.9375 46.849609 C 35.830257 47.726807 41.345548 44.883978 44.128906 40.001953 L 43.496094 40.001953 C 40.561577 44.263544 35.414025 46.664847 29.9375 45.849609 C 23.136104 44.837152 18.258069 39.231162 18.021484 32.554688 z"/>
</svg>

<svg xmlns="http://www.w3.org/2000/svg" width="64" height="64" version="1"><path style="opacity:.2" d="M32.7 5a6.988 6.988 0 0 0-.763.034C17.662 5.069 5.489 16.01 4.126 30.349c-1.403 14.752 9.094 28.165 23.75 30.347 14.335 2.134 27.963-7.179 31.32-21.173l-9.854-11.847c-1.398-1.703-1.974-1.675-4.047-1.675H36.2c-9.466-.134-9.466 14.135 0 14h7.93c-2.784 4.883-8.299 7.725-14.192 6.848-7.432-1.107-12.587-7.693-11.875-15.174.711-7.48 7.014-12.978 14.522-12.663a7 7 0 0 0 .913-.01H41.8A7 7 0 1 0 41.8 5z"/><path style="fill:#214487" d="M32.7 4a6.988 6.988 0 0 0-.763.034C17.662 4.069 5.489 15.01 4.126 29.349c-1.403 14.752 9.094 28.165 23.75 30.347 14.335 2.134 27.963-7.179 31.32-21.173l-9.854-11.847c-1.398-1.703-1.974-1.675-4.047-1.675H36.2c-9.466-.134-9.466 14.135 0 14h7.93c-2.784 4.883-8.299 7.725-14.192 6.848-7.432-1.107-12.587-7.693-11.875-15.174.711-7.48 7.014-12.978 14.522-12.663a7 7 0 0 0 .913-.01H41.8A7 7 0 1 0 41.8 4z"/><path style="opacity:.1;fill:#fff" d="M32.7 4a6.967 6.967 0 0 0-.763.033C17.663 4.07 5.49 15.012 4.125 29.35a27.857 27.857 0 0 0-.113 3.173c.012-.72.044-1.445.113-2.173C5.489 16.012 17.663 5.069 31.938 5.033c.253-.025.507-.036.761-.033h9.102c3.736-.053 6.814 2.83 7.074 6.5.012-.165.025-.332.025-.5a7 7 0 0 0-7.1-7h-9.1zm3.5 21.002c-4.957-.07-7.313 3.808-7.079 7.5.213-3.36 2.568-6.564 7.078-6.5h9.096c2.073 0 2.648-.029 4.047 1.674l9.652 11.605c.068-.252.14-.502.201-.758l-9.853-11.847c-1.399-1.703-1.974-1.674-4.047-1.674h-9.096zM18.02 32.555c-.243 7.11 4.778 13.232 11.916 14.295 5.893.877 11.409-1.966 14.192-6.848h-.633c-2.934 4.262-8.082 6.663-13.559 5.848-6.8-1.013-11.679-6.619-11.916-13.295z"/></svg>
